X:1
T:The Quebec Donkey
L:1/8
Q:1/4=110
M:2/4
K:G
|: z4 | z4 | z4 | z4 |
z4 | z4 | z4 | z4 ::
"C"z4 |"C" z4 |"Am" z4 |"Am" z4 |
"C"z4 |"C" z4 |"G" C2"D" B,2 |"Em" E,2 z2 ::
"G"D>E G z |"G" z3 F |"C" G z A z |"D" G z F z |
"G"D>E G z |"G" z3 F |"C" G z"D" F z |"Em" E2 E2 ::
"C"E z"G/B" D z |"Am7" E z"Em/G" E z |"Am7" E z/2 E/2 z2 |"Bm7" D z/2 D/2 z2 |
"C"E z"G7/B" D z |"Am7" E z"G" D z |"Cmaj7" G z"Bm7" F z |"Em"E2 E2 ::

